src/topics/icons/hipercard.svg

<svg height="223" preserveAspectRatio="xMidYMid" viewBox="0 0 512 223" width="512" xmlns="http://www.w3.org/2000/svg"><path d="m140.554538 0h-53.0644993c-23.4461927 1.10858841-42.6118068 10.5521938-48.1457033 30.0263634-2.8855461 10.1561975-4.4735512 21.3104262-6.7299257 31.8384983-11.4708246 53.5328603-21.6420981 108.5391473-32.6144097 161.0026163h413.120547c31.938 0 53.866542-6.749021 59.79342-32.0968 2.752877-11.77536 5.390172-25.113598 8.024451-38.050815 10.26776-50.44228 20.544566-100.8815452 31.061582-152.719863z" fill="#b82126"/><path d="m353.699639 133.153129c-5.72938 5.60891-21.812204 7.202134-20.166776-6.205239 1.366337-11.135498 13.489694-13.501741 26.630023-11.893459-.976815 6.090793-2.097192 13.825004-6.463247 18.098698zm-18.098698-43.4366741c-.547137 3.072-1.387419 5.8518588-2.068078 8.7903373 6.560627-1.6444236 26.989427-6.6881255 28.958117 2.0680788.653553 2.909364-.473851 6.000439-1.293051 8.274321-18.474164-1.749835-33.53098 1.319153-37.490447 14.478557-2.65236 8.814431.297161 17.488314 5.947232 19.909773 10.881506 4.661207 24.117208-.678651 28.699106-8.01531-.475859 2.539921-.92662 5.104941-.776032 8.273317h9.566369c.101396-9.161788 1.434604-16.577756 2.84411-24.82196 1.201694-7.020424 3.461521-13.970573 3.102117-20.1667768-.821208-14.1904314-24.330039-9.1708236-37.489443-8.7903373zm95.922698 47.8318431c-7.484235.160627-11.205772-4.471467-11.376439-12.151467-.298165-13.450541 5.601882-28.3939134 17.581678-29.7341486 5.577789-.6234353 9.616565.6736313 13.70353 2.0690823-3.751655 15.1080153-2.397365 39.4410663-19.908769 39.8165333zm24.820957-71.1017411c-.952721 8.3546353-2.226698 16.3890196-3.877145 24.0449255-27.271529-8.6317177-43.996863 11.4326586-43.69669 36.1973956.059231 4.78971.883451 9.539263 3.879153 12.927498 5.162164 5.838808 19.943906 7.235263 27.406055 2.328095 1.445647-.94971 2.921411-2.678463 3.879153-3.878149.718807-.90353 1.86127-3.266761 2.067074-2.587106-.391529 2.625255-.97782 5.055749-1.033035 8.016313h10.083388c1.942588-27.876894 7.952063-51.6879055 12.410478-77.0489721zm-284.665976 66.9655841c-5.948236 6.299608-20.571357 6.203232-21.717836-4.396172-.499953-4.612016 1.218761-9.447906 2.068079-14.219545.859357-4.829867 1.477772-9.463969 2.326086-13.704534 5.858886-7.1539449 23.075137-8.0173175 24.821961 3.879153 1.515921 10.328345-2.572047 23.223718-7.49829 28.441098zm8.791341-43.6956861c-9.409757-3.5348078-20.878557.6846745-25.849977 4.6983529.017067.1766902-.118462.2007844-.265035.2138353.085333-.0712784.17669-.1425568.265035-.2138353-.001004-.0150588-.002008-.0281098-.006023-.0441725.084329-1.7267451.691702-2.9284392.776031-4.6541804h-9.566368c-3.986573 26.5226041-8.71404 52.3033101-13.70353 77.8240001h11.117428c1.609286-9.939828 2.672439-20.424784 4.913192-29.733145 2.538917 9.790243 19.117678 7.918933 26.113004 4.137161 14.435388-7.805491 25.568878-44.9546043 6.206243-52.2280161zm52.744031 18.6157181h-26.113004c.826228-6.003451 6.227326-12.6022279 14.736565-12.9274985 8.009286-.3061961 13.743686 2.9404863 11.376439 12.9274985zm-10.600408-19.6497573c-8.03338.6184157-14.823906 2.930447-19.649757 8.0143059-5.919121 6.2363604-10.712847 20.0232154-9.30836 32.5782584 2.003827 17.911969 24.305945 17.269459 42.144627 12.927498.303184-3.143278 1.064157-5.830776 1.551059-8.790337-7.348706 2.749741-20.107545 6.587734-27.665067 1.810071-5.70629-3.608094-5.739419-12.744785-3.878149-20.6848 11.988832-.38149 24.449506-.308204 36.455404 0 .761977-5.627985 2.94149-11.763953 1.034039-17.3226669-2.515827-7.3386667-11.52-9.2380863-20.683796-8.5323294zm-97.732768 1.0340392c-.301177.0431686-.281098.4085961-.259012.7750275-2.449569 18.3205646-5.764518 35.7767526-9.307357 53.0040466h11.117428c2.671435-18.444047 5.731388-36.498572 9.566368-53.7790741zm290.096188.2580078c-9.826384-4.9121882-18.006337 3.3310118-21.200816 8.2733177.909553-2.5359059.961757-5.9311686 1.809067-8.5313255h-9.82538c-2.648346 18.4661331-5.842824 36.3871371-9.566369 53.7790741h11.376439c.072282-7.127843 1.471749-12.400439 2.585098-19.391749 2.37829-14.925302 5.867922-31.2942427 23.270902-26.3720153.577255-2.5248627.817192-5.3880471 1.551059-7.757302zm-124.88182 40.8515763c-1.024-2.647341-1.290039-7.019419-1.034039-10.3424.575247-7.471184 3.296879-16.566714 7.49829-20.6837959 5.797647-5.6832 17.243357-4.7425255 26.372016-1.5520627.283106-3.0770196.901522-5.8207373 1.293051-8.7893333-14.972486-2.445553-29.180988-.9246118-36.714416 6.9802666-7.373804 7.7382273-12.20869 25.5237023-8.791341 36.7144153 4.000628 13.095153 21.934682 13.806934 36.457412 8.791342.641506-2.632283.981835-5.566746 1.551059-8.274322-7.934996 4.123106-23.105255 6.265475-26.632032-2.84411zm-6.204235-41.1095841c-9.85851-3.9815529-17.60778 2.7467294-21.200816 9.049349.814181-2.8039529 1.150494-6.0877804 1.809067-9.049349h-9.82538c-2.401381 18.6277651-5.942212 36.1160781-9.307357 53.7790741h11.118431c1.558086-10.484956 2.230714-24.61716 5.687216-34.646337 2.762792-8.014306 9.993035-14.8419763 20.425788-11.1174273.146573-2.956549.992878-5.2133647 1.293051-8.0153098zm-179.17691-21.7188392c-1.588204 10.3052549-3.377192 20.4097255-5.1711998 30.5091765-11.5179921.1214745-23.2779294.5692235-34.3873255-.2590118 2.0981961-9.8795922 3.6030745-20.3545098 5.6872157-30.2501647h-12.4094745c-4.4433569 25.2054588-8.4841412 50.8114823-13.4445176 75.4979133h12.6684862c1.9877647-12.66447 3.8460236-25.457443 6.4632471-37.490447 10.8021961-.266039 23.7487686-.729851 34.1293176.259012-2.1403607 12.510871-4.7264627 24.574996-6.7222588 37.231435h12.6694906c4.069898-25.576909 8.359655-50.9349643 13.444517-75.4979133zm31.543216 11.3764392c2.216659-1.5259608 5.070808-8.4811294 1.81007-11.3764392-1.033035-.9165804-2.761788-1.1826196-5.1712-.7750275-2.235733.3774745-3.521756 1.1364393-4.395168 2.3260863-1.40549 1.9134745-2.692518 7.6820079-.518024 9.8253804 2.118275 2.0871529 6.863812.9707922 8.274322 0z" fill="#fff"/></svg>

<?xml version="1.0" encoding="UTF-8"?>
<svg width="512px" height="223px" viewBox="0 0 512 223" version="1.1" xmlns="http://www.w3.org/2000/svg" xmlns:xlink="http://www.w3.org/1999/xlink" preserveAspectRatio="xMidYMid">
	<g>
		<path d="M140.554538,0 L87.4900387,0 C64.043846,1.10858841 44.8782319,10.5521938 39.3443354,30.0263634 C36.4587893,40.1825609 34.8707842,51.3367896 32.6144097,61.8648617 C21.1435851,115.397722 10.9723116,170.404009 0,222.867478 L413.120547,222.867478 C445.058547,222.867478 466.987089,216.118457 472.913967,190.770678 C475.666844,178.995318 478.304139,165.65708 480.938418,152.719863 C491.206178,102.277583 501.482984,51.8383178 512,0 L140.554538,0" fill="#B82126"></path>
		<path d="M353.699639,133.153129 C347.970259,138.762039 331.887435,140.355263 333.532863,126.94789 C334.8992,115.812392 347.022557,113.446149 360.162886,115.054431 C359.186071,121.145224 358.065694,128.879435 353.699639,133.153129 Z M335.600941,89.7164549 C335.053804,92.7884549 334.213522,95.5683137 333.532863,98.5067922 C340.09349,96.8623686 360.52229,91.8186667 362.49098,100.574871 C363.144533,103.484235 362.017129,106.57531 361.197929,108.849192 C342.723765,107.099357 327.666949,110.168345 323.707482,123.327749 C321.055122,132.14218 324.004643,140.816063 329.654714,143.237522 C340.53622,147.898729 353.771922,142.558871 358.35382,135.222212 C357.877961,137.762133 357.4272,140.327153 357.577788,143.495529 L367.144157,143.495529 C367.245553,134.333741 368.578761,126.917773 369.988267,118.673569 C371.189961,111.653145 373.449788,104.702996 373.090384,98.5067922 C372.269176,84.3163608 348.760345,89.3359686 335.600941,89.7164549 Z M431.523639,137.548298 C424.039404,137.708925 420.317867,133.076831 420.1472,125.396831 C419.849035,111.94629 425.749082,97.0029176 437.728878,95.6626824 C443.306667,95.0392471 447.345443,96.3363137 451.432408,97.7317647 C447.680753,112.83978 449.035043,137.172831 431.523639,137.548298 Z M456.344596,66.4465569 C455.391875,74.8011922 454.117898,82.8355765 452.467451,90.4914824 C425.195922,81.8597647 408.470588,101.924141 408.770761,126.688878 C408.829992,131.478588 409.654212,136.228141 412.649914,139.616376 C417.812078,145.455184 432.59382,146.851639 440.055969,141.944471 C441.501616,140.994761 442.97738,139.266008 443.935122,138.066322 C444.653929,137.162792 445.796392,134.799561 446.002196,135.479216 C445.610667,138.104471 445.024376,140.534965 444.969161,143.495529 L455.052549,143.495529 C456.995137,115.618635 463.004612,91.8076235 467.463027,66.4465569 L456.344596,66.4465569 Z M171.67862,133.412141 C165.730384,139.711749 151.107263,139.615373 149.960784,129.015969 C149.460831,124.403953 151.179545,119.568063 152.028863,114.796424 C152.88822,109.966557 153.506635,105.332455 154.354949,101.09189 C160.213835,93.9379451 177.430086,93.0745725 179.17691,104.971043 C180.692831,115.299388 176.604863,128.194761 171.67862,133.412141 Z M180.469961,89.7164549 C171.060204,86.1816471 159.591404,90.4011294 154.619984,94.4148078 C154.637051,94.591498 154.501522,94.6155922 154.354949,94.6286431 C154.440282,94.5573647 154.531639,94.4860863 154.619984,94.4148078 C154.61898,94.399749 154.617976,94.386698 154.613961,94.3706353 C154.69829,92.6438902 155.305663,91.4421961 155.389992,89.7164549 L145.823624,89.7164549 C141.837051,116.239059 137.109584,142.019765 132.120094,167.540455 L143.237522,167.540455 C144.846808,157.600627 145.909961,147.115671 148.150714,137.80731 C150.689631,147.597553 167.268392,145.726243 174.263718,141.944471 C188.699106,134.13898 199.832596,96.9898667 180.469961,89.7164549 Z M233.213992,108.332173 L207.100988,108.332173 C207.927216,102.328722 213.328314,95.7299451 221.837553,95.4046745 C229.846839,95.0984784 235.581239,98.3451608 233.213992,108.332173 Z M222.613584,88.6824157 C214.580204,89.3008314 207.789678,91.6128627 202.963827,96.6967216 C197.044706,102.933082 192.25098,116.719937 193.655467,129.27498 C195.659294,147.186949 217.961412,146.544439 235.800094,142.202478 C236.103278,139.0592 236.864251,136.371702 237.351153,133.412141 C230.002447,136.161882 217.243608,139.999875 209.686086,135.222212 C203.979796,131.614118 203.946667,122.477427 205.807937,114.537412 C217.796769,114.155922 230.257443,114.229208 242.263341,114.537412 C243.025318,108.909427 245.204831,102.773459 243.29738,97.2147451 C240.781553,89.8760784 231.77738,87.9766588 222.613584,88.6824157 Z M124.880816,89.7164549 C124.579639,89.7596235 124.599718,90.125051 124.621804,90.4914824 C122.172235,108.812047 118.857286,126.268235 115.314447,143.495529 L126.431875,143.495529 C129.10331,125.051482 132.163263,106.996957 135.998243,89.7164549 L124.880816,89.7164549 Z M414.977004,89.9744627 C405.15062,85.0622745 396.970667,93.3054745 393.776188,98.2477804 C394.685741,95.7118745 394.737945,92.3166118 395.585255,89.7164549 L385.759875,89.7164549 C383.111529,108.182588 379.917051,126.103592 376.193506,143.495529 L387.569945,143.495529 C387.642227,136.367686 389.041694,131.09509 390.155043,124.10378 C392.533333,109.178478 396.022965,92.8095373 413.425945,97.7317647 C414.0032,95.206902 414.243137,92.3437176 414.977004,89.9744627 Z M290.095184,130.826039 C289.071184,128.178698 288.805145,123.80662 289.061145,120.483639 C289.636392,113.012455 292.358024,103.916925 296.559435,99.7998431 C302.357082,94.1166431 313.802792,95.0573176 322.931451,98.2477804 C323.214557,95.1707608 323.832973,92.4270431 324.224502,89.4584471 C309.252016,87.0128941 295.043514,88.5338353 287.510086,96.4387137 C280.136282,104.176941 275.301396,121.962416 278.718745,133.153129 C282.719373,146.248282 300.653427,146.960063 315.176157,141.944471 C315.817663,139.312188 316.157992,136.377725 316.727216,133.670149 C308.79222,137.793255 293.621961,139.935624 290.095184,130.826039 Z M283.890949,89.7164549 C274.032439,85.734902 266.283169,92.4631843 262.690133,98.7658039 C263.504314,95.961851 263.840627,92.6780235 264.4992,89.7164549 L254.67382,89.7164549 C252.272439,108.34422 248.731608,125.832533 245.366463,143.495529 L256.484894,143.495529 C258.04298,133.010573 258.715608,118.878369 262.17211,108.849192 C264.934902,100.834886 272.165145,94.0072157 282.597898,97.7317647 C282.744471,94.7752157 283.590776,92.5184 283.890949,89.7164549 Z M104.714039,67.9976157 C103.125835,78.3028706 101.336847,88.4073412 99.5428392,98.5067922 C88.0248471,98.6282667 76.2649098,99.0760157 65.1555137,98.2477804 C67.2537098,88.3681882 68.7585882,77.8932706 70.8427294,67.9976157 L58.4332549,67.9976157 C53.989898,93.2030745 49.9491137,118.809098 44.9887373,143.495529 L57.6572235,143.495529 C59.6449882,130.831059 61.5032471,118.038086 64.1204706,106.005082 C74.9226667,105.739043 87.8692392,105.275231 98.2497882,106.264094 C96.1094275,118.774965 93.5233255,130.83909 91.5275294,143.495529 L104.19702,143.495529 C108.266918,117.91862 112.556675,92.5605647 117.641537,67.9976157 L104.714039,67.9976157 Z M136.257255,79.3740549 C138.473914,77.8480941 141.328063,70.8929255 138.067325,67.9976157 C137.03429,67.0810353 135.305537,66.8149961 132.896125,67.2225882 C130.660392,67.6000627 129.374369,68.3590275 128.500957,69.5486745 C127.095467,71.462149 125.808439,77.2306824 127.982933,79.3740549 C130.101208,81.4612078 134.846745,80.3448471 136.257255,79.3740549 L136.257255,79.3740549 Z" fill="#FFFFFF"></path>
	</g>
</svg>
